public/logo-dark.svg

<svg fill="none" height="967" viewBox="0 0 992 967" width="992" xmlns="http://www.w3.org/2000/svg"><g fill="#f00"><path clip-rule="evenodd" d="m294.2 913.695c-14.725 15.52-50.04 19.08-68.064-1.154-8.1-9.093-12.707-22.651-10.382-42.683-16.92 4.422-52.605 3.922-59.988-33.455-18.458 1.923-54.104-6.691-49.028-56.527-16.151-4.807-44.876-23.88-30.5712-61.718-20.5727-1.923-55.2579-19.381-29.417-73.831-9.998-2.115-30.4553-12.113-32.3011-35.185-1.8875-23.594 7.8057-33.677 13.9215-40.038 1.36-1.415 2.5432-2.645 3.3826-3.8-10.9593-2.499-32.647148-14.881-31.7242583-44.414.8238863-26.364 15.4751583-33.9 22.5224583-37.524 2.8204-1.451 4.4229-2.275 3.4337-3.429-8.8443-2.5-26.0716152-14.766-24.22584-43.837.76908-10.383 8.42134-31.955 32.87794-35.185-17.3042-17.112-37.95383-57.45 17.881-81.907-11.7284-19.611-21.8033-61.257 31.7243-70.947-5.1913-9.806-11.9976-33.455 2.3072-49.605 14.7967-16.706 23.6687-17.218 35.1147-17.878 2.385-.138 4.883-.282 7.569-.58 2.884.384 9.69 1.73 13.843 4.038-8.267-15.382-14.189-50.067 28.264-65.756 7.691-1.923 26.418-3.461 39.799 5.768-3.076-17.881 1.039-55.489 42.107-62.8721 5.961-1.7304 22.496-1.4997 40.953 13.2665-.384-18.0732 11.075-54.2197 59.988-54.2197 7.499.5768 25.495 5.768 37.493 21.9186 2.884-17.4964 19.957-50.06674 65.179-40.3764 5.768.00001 20.995 5.88344 35.762 29.4171 4.614-12.4975 22.957-35.87734 59.411-29.4171 10.19 1.92269 32.647 13.3819 40.953 43.8373 9.998-16.7274 40.146-41.9915 80.753-9.2289 5.576 5.3835 16.035 20.5343 13.266 38.0692 14.42-10.1903 49.952-22.3801 76.715 10.3825 5.768 8.0753 12.113 19.035 8.076 39.223 17.304-6.922 55.835-11.421 71.524 25.956 2.115 4.23 5.422 16.612 1.73 32.301 20.188-8.652 67.14 11.536 49.605 57.681 21.342 1.73 60.565 25.725 30.571 73.254 32.301-6.345 68.063 42.684 26.533 77.292 26.533 6.345 50.762 49.605 11.536 81.33 11.921 5.575 33.916 23.764 26.533 51.912-2.115 7.883-10.844 25.149-28.84 31.148 11.536 8.652 30.225 33.339 12.69 62.872-5.191 7.306-18.804 20.995-31.725 17.304 10.191 8.652 26.764 32.762 11.537 59.988-4.807 7.114-17.997 20.88-32.302 19.034 5.961 18.073 6.461 55.95-39.222 62.872 5.768 10.383 8.767 35.877-25.38 54.797-6.729 2.499-21.572 5.998-27.11 0 .193 19.803-11.767 56.296-61.141 43.837 1.923 10.19 1.038 33.801-17.881 46.721-10.767 8.075-38.646 18.227-64.026-5.768-4.037 42.107-57.334 73.831-102.094 27.687-6.537 5.383-21.227 16.035-27.687 15.573-5.575-.398-3.783-6.981-1.983-13.597.286-1.051.573-2.102.829-3.13.568-2.269 1.157-5.295 1.858-8.9 2.508-12.887 6.456-33.18 16.023-52.818 10.96-22.496 11.537-69.217-50.182-86.521-14.42 44.414-66.678 141.202-162.659 168.427-19.996 4.615-61.256 1.154-66.332-49.605zm235.913-157.468c20.957 4.615 87.559 13.728 186.308 13.267 14.997 0 23.073-9.229 25.957-24.803 2.114-5.191 2.076-18.227-14.997-28.84-9.422-3.653-29.764-11.882-35.762-15.574-5.999-3.692-9.037-8.46-9.806-10.383l-1.154-6.344c17.689 1.922 49.029 5.191 52.49 4.614.404-.067.84-.127 1.296-.189 3.839-.526 9.086-1.244 9.086-8.463 0-.59.019-1.161.037-1.719.126-3.808.232-7.02-5.805-11.548-4.23-4.806-19.15-12.574-44.991-5.191-4.806 1.731-17.304 5.653-28.84 7.499-3.461 0-8.998-1.846-3.461-9.229 6.922-9.229 29.994-28.841 32.301-29.417 4.23-2.884 18.227-8.768 40.377-9.229-1.539-4.422-5.999-14.42-11.536-19.035h-9.806c-1.538-.192-5.307-1.269-8.075-4.038-2.692-.961-10.729-1.499-21.342 4.038-5.961.577-16.612-1.153-11.536-12.69 1.922-4.806 17.534-16.496 64.602-24.802 1.538-.385 3.576-2.192-.577-6.345-1.278-1.278-4.97-3.676-9.922-6.892-15.154-9.842-42.107-27.346-47.759-43.867-3.268-6.153-6.575-21.688 6.345-34.608.577-1.731 1.385-5.999 0-9.229-1.384-3.23-30.955-31.725-45.567-45.568l-4.038-6.345c-1.154-1.73-4.499-3.922-8.652 1.154s-16.343 8.652-21.919 9.806c-8.652.769-27.456 1.615-33.454-1.154l-7.499 22.495c13.267-1.538 45.798-1.153 69.794 12.69 5.96 4.422 13.292 15.474 1.792 25.474-.276.023-.543.046-.802.068-5.364.455-7.213.612-14.257-2.47-.795-.347-1.726-.785-2.79-1.284-11.291-5.303-37.502-17.613-73.348-3.907l-29.417 12.113c8.075 19.804 10.613 64.833-43.838 86.521v2.884c11.536 11.921 30.225 44.875 12.69 81.329 19.035 12.498 55.027 49.49 46.721 97.481z" fill-rule="evenodd"/><path d="m568 502.262c-18.895 6.749-30.388 8.63-44.809 12.283 0 5.192 27.687 25.38 58.835 27.687 24.918 1.846 44.99-3.461 51.912-6.345 0-4.125-3.708-10.202-5.438-12.125-16.151-19.034-24.835-19.5-33.785-22.483-11.215-3.739-19.715-1.517-26.715.983z"/></g></svg>

<svg width="992" height="967" viewBox="0 0 992 967" fill="none" xmlns="http://www.w3.org/2000/svg">
<path fill-rule="evenodd" clip-rule="evenodd" d="M294.2 913.695C279.475 929.215 244.16 932.775 226.136 912.541C218.036 903.448 213.429 889.89 215.754 869.858C198.834 874.28 163.149 873.78 155.766 836.403C137.308 838.326 101.662 829.712 106.738 779.876C90.587 775.069 61.862 755.996 76.1668 718.158C55.5941 716.235 20.9089 698.777 46.7498 644.327C36.7518 642.212 16.2945 632.214 14.4487 609.142C12.5612 585.548 22.2544 575.465 28.3702 569.104C29.7302 567.689 30.9134 566.459 31.7528 565.304C20.7935 562.805 -0.894348 550.423 0.0285417 520.89C0.852428 494.526 15.5037 486.99 22.551 483.366C25.3714 481.915 26.9739 481.091 25.9847 479.937C17.1404 477.437 -0.0869152 465.171 1.75886 436.1C2.52794 425.717 10.1802 404.145 34.6368 400.915C17.3326 383.803 -3.31703 343.465 52.5178 319.008C40.7894 299.397 30.7145 257.751 84.2421 248.061C79.0508 238.255 72.2445 214.606 86.5493 198.456C101.346 181.75 110.218 181.238 121.664 180.578C124.049 180.44 126.547 180.296 129.233 179.998C132.117 180.382 138.923 181.728 143.076 184.036C134.809 168.654 128.887 133.969 171.34 118.28C179.031 116.357 197.758 114.819 211.139 124.048C208.063 106.167 212.178 68.559 253.246 61.1759C259.207 59.4455 275.742 59.6762 294.199 74.4424C293.815 56.3692 305.274 20.2227 354.187 20.2227C361.686 20.7995 379.682 25.9907 391.68 42.1413C394.564 24.6449 411.637 -7.92544 456.859 1.7649C462.627 1.76491 477.854 7.64834 492.621 31.182C497.235 18.6845 515.578 -4.69534 552.032 1.7649C562.222 3.68759 584.679 15.1468 592.985 45.6022C602.983 28.8748 633.131 3.6107 673.738 36.3733C679.314 41.7568 689.773 56.9076 687.004 74.4425C701.424 64.2522 736.956 52.0624 763.719 84.825C769.487 92.9003 775.832 103.86 771.795 124.048C789.099 117.126 827.63 112.627 843.319 150.004C845.434 154.234 848.741 166.616 845.049 182.305C865.237 173.653 912.189 193.841 894.654 239.986C915.996 241.716 955.219 265.711 925.225 313.24C957.526 306.895 993.288 355.924 951.758 390.532C978.291 396.877 1002.52 440.137 963.294 471.862C975.215 477.437 997.21 495.626 989.827 523.774C987.712 531.657 978.983 548.923 960.987 554.922C972.523 563.574 991.212 588.261 973.677 617.794C968.486 625.1 954.873 638.789 941.952 635.098C952.143 643.75 968.716 667.86 953.489 695.086C948.682 702.2 935.492 715.966 921.187 714.12C927.148 732.193 927.648 770.07 881.965 776.992C887.733 787.375 890.732 812.869 856.585 831.789C849.856 834.288 835.013 837.787 829.475 831.789C829.668 851.592 817.708 888.085 768.334 875.626C770.257 885.816 769.372 909.427 750.453 922.347C739.686 930.422 711.807 940.574 686.427 916.579C682.39 958.686 629.093 990.41 584.333 944.266C577.796 949.649 563.106 960.301 556.646 959.839C551.071 959.441 552.863 952.858 554.663 946.242C554.949 945.191 555.236 944.14 555.492 943.112C556.06 940.843 556.649 937.817 557.35 934.212C559.858 921.325 563.806 901.032 573.373 881.394C584.333 858.898 584.91 812.177 523.191 794.873C508.771 839.287 456.513 936.075 360.532 963.3C340.536 967.915 299.276 964.454 294.2 913.695ZM530.113 756.227C551.07 760.842 617.672 769.955 716.421 769.494C731.418 769.494 739.494 760.265 742.378 744.691C744.492 739.5 744.454 726.464 727.381 715.851C717.959 712.198 697.617 703.969 691.619 700.277C685.62 696.585 682.582 691.817 681.813 689.894L680.659 683.55C698.348 685.472 729.688 688.741 733.149 688.164C733.553 688.097 733.989 688.037 734.445 687.975C738.284 687.449 743.531 686.731 743.531 679.512C743.531 678.922 743.55 678.351 743.568 677.793C743.694 673.985 743.8 670.773 737.763 666.245C733.533 661.439 718.613 653.671 692.772 661.054C687.966 662.785 675.468 666.707 663.932 668.553C660.471 668.553 654.934 666.707 660.471 659.324C667.393 650.095 690.465 630.483 692.772 629.907C697.002 627.023 710.999 621.139 733.149 620.678C731.61 616.256 727.15 606.258 721.613 601.643H711.807C710.269 601.451 706.5 600.374 703.732 597.605C701.04 596.644 693.003 596.106 682.39 601.643C676.429 602.22 665.778 600.49 670.854 588.953C672.776 584.147 688.388 572.457 735.456 564.151C736.994 563.766 739.032 561.959 734.879 557.806C733.601 556.528 729.909 554.13 724.957 550.914C709.803 541.072 682.85 523.568 677.198 507.047C673.93 500.894 670.623 485.359 683.543 472.439C684.12 470.708 684.928 466.44 683.543 463.21C682.159 459.98 652.588 431.485 637.976 417.642L633.938 411.297C632.784 409.567 629.439 407.375 625.286 412.451C621.133 417.527 608.943 421.103 603.367 422.257C594.715 423.026 575.911 423.872 569.913 421.103L562.414 443.598C575.681 442.06 608.212 442.445 632.208 456.288C638.168 460.71 645.5 471.762 634 481.762C633.724 481.785 633.457 481.808 633.198 481.83C627.834 482.285 625.985 482.442 618.941 479.36C618.146 479.013 617.215 478.575 616.151 478.076C604.86 472.773 578.649 460.463 542.803 474.169L513.386 486.282C521.461 506.086 523.999 551.115 469.548 572.803V575.687C481.084 587.608 499.773 620.562 482.238 657.016C501.273 669.514 537.265 706.506 528.959 754.497L530.113 756.227Z" fill="red"/>
<path d="M568 502.262C549.105 509.011 537.612 510.892 523.191 514.545C523.191 519.737 550.878 539.925 582.026 542.232C606.944 544.078 627.016 538.771 633.938 535.887C633.938 531.762 630.23 525.685 628.5 523.762C612.349 504.728 603.665 504.262 594.715 501.279C583.5 497.54 575 499.762 568 502.262Z" fill="red"/>
</svg>
